public/assets/images/icons/green/export/span-1quarter.svg

<svg width="16" height="16" xmlns="http://www.w3.org/2000/svg" viewBox="0 0 16 16" shape-rendering="geometricPrecision" fill="#00962d"><defs><mask id="a"><rect fill="#fff" width="100%" height="100%"/><path d="M13.848-1.1L12.051.695l.286.287A4.455 4.455 0 0 0 9.23 5.236v.987h2.626v-.988c0-.491.191-.954.538-1.302l.03-.03 1.425 1.421 3.212-3.213L13.848-1.1z" fill="#000"/></mask></defs><path d="M13.848-.04l-.736.735.821.821h-.234l-.156.008A3.722 3.722 0 0 0 9.98 5.235v.237h1.126v-.237c0-.691.27-1.343.759-1.833a2.579 2.579 0 0 1 1.833-.759h.3l-.886.887.735.734L16 2.111 13.848-.04z" fill="#cb1800"/><g mask="url(#a)"><path d="M14.938 8.001a6.94 6.94 0 1 0-13.878 0 6.94 6.94 0 0 0 13.878 0zm-12.472 0a5.543 5.543 0 0 1 5.531-5.536 5.544 5.544 0 0 1 5.537 5.536 5.543 5.543 0 0 1-5.537 5.534 5.54 5.54 0 0 1-5.531-5.534z"/><path d="M8 8.001h4.673A4.682 4.682 0 0 0 8 3.327v4.674z"/></g></svg>

<?xml version="1.0"?><!DOCTYPE svg PUBLIC "-//W3C//DTD SVG 1.1//EN" "http://www.w3.org/Graphics/SVG/1.1/DTD/svg11.dtd"><svg width="16px" height="16px" xmlns="http://www.w3.org/2000/svg" viewBox="0 0 16 16" shape-rendering="geometricPrecision" fill="#00962d"><defs><mask id="export-path"><rect fill="#fff" width="100%" height="100%"/><path d="M13.848-1.1l-1.797,1.795l0.286,0.287c-1.812,0.575-3.107,2.263-3.107,4.254v0.987h2.626 V5.235c0-0.491,0.191-0.954,0.538-1.302c0.01-0.01,0.021-0.02,0.03-0.03l1.425,1.421l3.212-3.213L13.848-1.1z" fill="#000"/></mask></defs><path id="export" display="inline" d="M13.848-0.04l-0.736,0.735l0.821,0.821h-0.234 l-0.156,0.008c-1.978,0.084-3.563,1.714-3.563,3.711v0.237h1.126V5.235c0-0.691,0.27-1.343,0.759-1.833 c0.49-0.489,1.141-0.759,1.833-0.759h0.237V2.643h0.063L13.112,3.53l0.735,0.734L16,2.111L13.848-0.04z" fill="#cb1800"/><g mask="url(#export-path)"><g><path d="M14.938,8.001c0-3.833-3.107-6.939-6.941-6.939c-3.829,0-6.934,3.106-6.936,6.939c0.002,3.832,3.106,6.936,6.936,6.937 C11.831,14.938,14.938,11.833,14.938,8.001z M2.466,8.001c0.006-3.057,2.478-5.529,5.531-5.536 c3.059,0.007,5.531,2.479,5.537,5.536c-0.006,3.056-2.479,5.528-5.537,5.534C4.943,13.529,2.472,11.057,2.466,8.001z"/></g><path d="M8,8.001h4.673C12.668,5.421,10.581,3.334,8,3.327V8.001z"/></g></svg>
